X: 5846
T: Calliope House
R: jig
M: 6/8
K: Emajor
B|:eBB gBB|fBB gfe|cff f2e|fge cec|BcB B2G|
B2c e2f|1 gbg gfe|f3 f2B:|2 gbg fec|e3 ega||
|:b3 gbb|fbb gbb|a3 gag|fge cec|BcB B2G|
B2c e2f|1 gbg gfe|f3 fga:|2 gbg fec|e3 e2||

